X: 93
T: Da gu la Tunl-a                                 (Name)
%%abc-version 2.0
%%abcx-abcm2ps-target-version 5.9.1 (29 Sep 2008)
%%abc-creator hum2abc beta
%%abcx-conversion-date 2013/10/02 07:44:27
%%abc-edited-by Helmut Schaffrath
%%humdrum-veritas 2375737818
%%humdrum-veritas-data 2335936823
%%continueall 1
%%barnumbers 0
L: 1/8
M: 4/4
K: C
A2>A2d2e2 [I:setbarnb 1]| 
E2A G E GE2 | 
A e e d c c d g | 
e8 | 
A c c d e ge2 | 
c> e d cA2A2 | 
c d/ e/ A G E Gc2 | 
A8 |]  



